X:703
T:Reel 703
M:4/4
K:Amaj
L:1/8
EG|A2CD E2CE|AGAF ECB,C|A,B,CD EAGA| (3FGA ED ECB,C|A2CD ECA,C|EFEC EGA2|FECD ECCF|ECA,B, C2| (3Bcd |ecfc ecAc|dcBA GABd|cdec Acec|dcBc A2AB|cdec fedB|cdcA BGAB|cdec deed|ceBG A2|
